X: 77
T:Shoes and Stockings
S:https://tunearch.org/wiki/Shoes_and_Stockings
M:C|
L:1/8
R:Reel
K:G
((3DEF|"*"G2)G2 B2B2|cBcc d2((3DEF|G2)G2B2B2|c2A2  AFAF|
G3G B2B2|cBcc d2d2-|"**"d2B2 c2 A2|G3G G2:||
|:(ef|g2)g2 a2ga|b2b2 d4|"$"c2c2B2B2|cBcc d2(ef|
g2)g2 a2a2|b2b2d4|c2 dc BAGB|AGFA G2:|

